X:1
T:Lunga stagion
T:Lunga stagion
T:Piero Benedetti
T:Source : Musische di Piero Benedetti---Fiorenza---Heredes C.Marescotti---1611. Editor : André Vierendeels (20/05/15).
T:Notes : Original clefs : C1, F4 Figures in BC are notated in original print Rime di Gabriello Chiabrera "Canzonette amorose..."
C:Piero Benedetti
%%score 1 2
L:1/8
Q:1/4=80
M:4/4
K:F
V:1 treble nm="Soprano" snm="S"
V:2 bass nm="BC" snm="BC"
V:1
 G4 GGGG | B4 B4 | z2 d2 _e3 B | c4 c4 | z2 AA A4- | A2 Bc dABG | A2 A2 z2 dd | d6 cc | c4- c3 B | %9
w: Lun- ga sta- gion io|spe- si|in tra- er|gua- i,|è di la-|* gri- me cal- de'il pet- to'as-|per- si, et af-|fan- ni'as- ser-|bis- * si-|
 B3 d G3 ^F- | G2 z d _ecde | AABd A4 | G8 |: z2 d4 F2- | F2 ^F2 z2 _e2- | e2 dc B4 | A8 | A4 A4 | %18
w: mi sof- fer- si,|_ ne tan- to di mar-|tir vi pie- go ma-|i.|Ah sde-|* gno! Ah|_ fe- ri- ta-|te!|Oc- chi,|
 z EFD E4 | z dBA A4 | G8 :| %21
w: non di- ro piu,|non v'a- di- ra-|te.|
V:2
 G,,8 | G,,8 | G,8 | F,8 | F,4 F,4 |"^#" _E,4 D,2 G,,2 |"^#" D,4 B,4- | B,2 A,G, E,4- | E,4 ^F,4 | %9
 G,4 G,,4 |"^b" G,,4 C,4 |"^#""^4""^#" D,2 D,4 D,2 |"^-natural" G,,8 |:"^#" D,8 | %14
"^#""^b" D,4 C,4- | C,8 |"^#" D,8 |"^#" A,,8 |"^#" A,,8 |"^4""^#" G,,4 D,2 D,2 |"^-natural" G,,8 :| %21

